X: 23723
T: Listen Maudie, The Burren Wind Plays My Fiddle
R: jig
M: 6/8
K: Aminor
e|:aeg a2 a|gab age|aeg a3|~g3 age|
aeg a2 a|gab age|~g3 gab|age edB:|
|:eAA ~A3|~d3 ged|eAA ~A3|~G3 GBd|
eAA ~A3|dBd dBd|~g3 gab|1 age edB:|2 age d2||

